include/LD/assets/icons/action/new_custom45.svg

<?xml version="1.0"?><svg xmlns="http://www.w3.org/2000/svg" width="52" height="52" viewBox="0 0 52 52"><g fill="#fff"><path d="m13.2 20.8h25.5v10.5h-25.5z m36.8-1.3v-4c0-2.5-2-4.5-4.5-4.5h-39c-2.5 0-4.5 2-4.5 4.5v4c0 0.5 0.3 1.1 0.8 1.3 1.8 1.1 3 3 3 5.2s-1.2 4.1-3 5.2c-0.5 0.2-0.8 0.7-0.8 1.2v4.1c0 2.5 2 4.5 4.5 4.5h39c2.5 0 4.5-2 4.5-4.5v-4c0-0.5-0.3-1.1-0.8-1.3-1.8-1.1-3-3-3-5.2s1.2-4.1 3-5.2c0.5-0.3 0.8-0.7 0.8-1.3z m-8.2 16.3h-31.6c-0.8 0-1.5-0.7-1.5-1.5v-16.5c0-0.8 0.7-1.5 1.5-1.5h31.5c0.8 0 1.5 0.7 1.5 1.5v16.5c0 0.8-0.6 1.5-1.4 1.5z"></path></g></svg>

<svg xmlns="http://www.w3.org/2000/svg" x="0px" y="0px"
	 width="52px" height="52px" viewBox="0 0 52 52" enable-background="new 0 0 52 52" xml:space="preserve">
<g>
	<rect x="13.2" y="20.8" fill="#FFFFFF" width="25.5" height="10.5"/>
	<path fill="#FFFFFF" d="M50,19.5v-4c0-2.5-2-4.5-4.5-4.5h-39C4,11,2,13,2,15.5v4c0,0.5,0.3,1.1,0.8,1.3c1.8,1.1,3,3,3,5.2
		c0,2.2-1.2,4.1-3,5.2C2.3,31.4,2,31.9,2,32.4v4.1C2,39,4,41,6.5,41h39c2.5,0,4.5-2,4.5-4.5v-4c0-0.5-0.3-1.1-0.8-1.3
		c-1.8-1.1-3-3-3-5.2c0-2.2,1.2-4.1,3-5.2C49.7,20.5,50,20.1,50,19.5z M41.8,35.8H10.2c-0.8,0-1.5-0.7-1.5-1.5V17.8
		c0-0.8,0.7-1.5,1.5-1.5h31.5c0.8,0,1.5,0.7,1.5,1.5v16.5C43.2,35.1,42.6,35.8,41.8,35.8z"/>
</g>
</svg>
